!!!OTL: Folk song Number 30
!!!CNT: Chinese
**kern
*k[f#c#g#]
*M2/4
=1
8f#
4e
8f#
=2
4a
8.b
16a
=3
8f#
4e
8f#
=4
8.a
16b
8cc#
(16ee
16cc#)
=5
[2b
=6
4.b]
8r
=7
(16b
16cc#)
8ee
8ee
8ee
=8
(8ee
8f#)
4a
=9
8b
(16b
16cc#)
(16b
16a)
8f#
=10
4e
8f#
8c#
=11
[2e
=12
4.e]
8r
=13
8f#
4e
8f#
=14
4a
8.b
16a
=15
8f#
4e
8f#
=16
8.a
16b
8cc#
(16ee
16cc#)
=17
[2b
=18
4.b]
8r
=19
(16b
16cc#)
8ee
8ee
8ee
=20
(8ee
8f#)
4a
=21
8b
(16b
16cc#)
(16b
16a)
8f#
=22
4e
8f#
8c#
=23
[2e
=24
4.e]
8r
=25
8.a
16b
8cc#
(16ee
16cc#)
=26
2b
=27
(16b
16cc#)
8ee
8ee
8ee
=28
(8ee
8f#)
4a
=29
8b
(16b
16cc#)
(16b
16a)
8f#
=30
4e
8f#
8c#
=31
[2e
=32
4.e]
8r
==
*-
!!!PPR: Yin yueh ch'u pan she
!!!OPR: Chung-kuo min ko Chung-kuo yin yueh yen chiu so pien [Chinese folk songs]
!!!OCL: Chung-kuo yin yueh yen chiu so
!!!PPP: Beijing, China
!!!PDT: 1959///
!!!SML: Edward Johnson Library, University of Toronto M1804.C4694C5
!!!PPG: p.23
!!!ENC: David Huron
!!!EMD: Paul von Hippel updated this file in the following ways (1998/9/29/):
!!!EMD:  (1) changed the representation of slurs from curly braces to parentheses 
!!!EMD:  (2) changed freeform comments into reference records and tandem interpretations
!!!EMD:  (3) corrected the author, title, author, and call number of the printed source 
!!!EEV: Version 2.0
